X:149
%%etbk:tnset id:182,pos:1,rep:2x,ant:,targ:Set-Dance,env:Toe for Toe,name:Clare Lancers Set
%%etbk:tnset id:52,pos:3,rep:3x,ant:
%%etbk:wsite http://www.thesession.org/tunes/display/410
%%etbk:skill ?
%%etbk:pldat 2013-10-30T17:37,2013-10-29T17:09,2013-10-27T14:06,2013-10-17T18:57,2013-10-14T18:19,2013-10-11T18:31,2013-10-07T17:49
T: Old Copperplate, The
Z: Piano Box Version by Martin Fleischmann
H: Created 2013-02-19 /  Last Modified 2013-02-19
M: 4/4
L: 1/8
R: reel
K: Ador
|:!3!A2 !1!E!3!A !5!c!3!A!1!A!2!e | !5!ag!2!e!1!d !3!c!1!A!2!F!4!A | !3!G2!1!D!3!G !5!B!1!G !2!(3B!3!^c!1!d | !4!g!2!e!1!d!3!c !2!B!1!A!2!G!4!B |
!3!A2!1!E!3!A !5!c!3!A!1!A!2!e | !5!age!1!d !3!c!1!A!2!B!1!G | !1!AB!3!c!1!d !2!efge | !5!age!1!d !3!c!1!A A2 :|
|:!5!ag!2!eg a2eg | !5!age!1!d !3!c!1!AA2 | !4!gf!2!ef g2!1!de | !4!ge!1!d!3!c !2!B!1!GG2 |
!5!ageg a2eg | !5!age!1!d !3!c!1!A!2!B!1!G | !1!AB!3!c!1!d !2!efge | !5!age!1!d !3!c!1!AA2 :|
